icons/arrow-down-circle-fill.svg

<svg xmlns="http://www.w3.org/2000/svg" viewBox="0 0 24 24">
    <g>
        <path fill="none" d="M0 0h24v24H0z"/>
        <path d="M12 2c5.52 0 10 4.48 10 10s-4.48 10-10 10S2 17.52 2 12 6.48 2 12 2zm1 10V8h-2v4H8l4 4 4-4h-3z"/>
    </g>
</svg>

<svg viewBox="0 0 24 24" xmlns="http://www.w3.org/2000/svg"><path d="M12 2C17.52 2 22 6.48 22 12C22 17.52 17.52 22 12 22C6.48 22 2 17.52 2 12C2 6.48 6.48 2 12 2ZM13 12V8H11V12H8L12 16L16 12H13Z"/></svg>
